src/assets/edital.svg

<svg width="24" height="24" xmlns="http://www.w3.org/2000/svg">

 <g>
  <title>background</title>
  <rect fill="none" id="canvas_background" height="402" width="582" y="-1" x="-1"/>
 </g>
 <g>
  <title>Layer 1</title>
  <g id="Bounding_Boxes">
   <path id="svg_1" d="m0,0l24,0l0,24l-24,0l0,-24z" fill="none"/>
  </g>
  <g id="Outline">
   <g id="ui_x5F_spec_x5F_header"/>
   <g id="svg_2">
    <path fill="#86c540" id="svg_3" d="m4,6l-2,0l0,14c0,1.1 0.9,2 2,2l14,0l0,-2l-14,0l0,-14z"/>
    <path fill="#86c540" id="svg_4" d="m20,2l-12,0c-1.1,0 -2,0.9 -2,2l0,12c0,1.1 0.9,2 2,2l12,0c1.1,0 2,-0.9 2,-2l0,-12c0,-1.1 -0.9,-2 -2,-2zm0,14l-12,0l0,-12l12,0l0,12z"/>
    <rect fill="#86c540" id="svg_5" height="2" width="8" y="9" x="10"/>
    <rect fill="#86c540" id="svg_6" height="2" width="4" y="12" x="10"/>
    <rect fill="#86c540" id="svg_7" height="2" width="8" y="6" x="10"/>
   </g>
  </g>
 </g>
</svg>

<?xml version="1.0" encoding="utf-8"?>
<!-- Generator: Adobe Illustrator 19.1.0, SVG Export Plug-In . SVG Version: 6.00 Build 0)  -->
<svg version="1.1" xmlns="http://www.w3.org/2000/svg" xmlns:xlink="http://www.w3.org/1999/xlink" x="0px" y="0px" width="24px"
	 height="24px" viewBox="0 0 24 24" enable-background="new 0 0 24 24" xml:space="preserve">
<g id="Bounding_Boxes">
	<path fill="none" d="M0,0h24v24H0V0z"/>
</g>
<g id="Outline">
	<g id="ui_x5F_spec_x5F_header">
	</g>
	<g>
		<path d="M4,6H2v14c0,1.1,0.9,2,2,2h14v-2H4V6z"/>
		<path d="M20,2H8C6.9,2,6,2.9,6,4v12c0,1.1,0.9,2,2,2h12c1.1,0,2-0.9,2-2V4C22,2.9,21.1,2,20,2z M20,16H8V4h12V16z"/>
		<rect x="10" y="9" width="8" height="2"/>
		<rect x="10" y="12" width="4" height="2"/>
		<rect x="10" y="6" width="8" height="2"/>
	</g>
</g>
</svg>
